X:456
T:Bobby Casey's hornpipe
T:The humours of Tullycreen
R:Hornpipe
D:Michael Tubridy: The Eagle's Whistle
D:Kevin Burke: If the Cap Fits
B:Ceol Rince 1 n205
S:Original abc's from norbeck...
S:My arrangement from various sources
Z:Transcription, arrangement, chords:Mike Long
M:4/4
L:1/8
K:C
AG|\
"Am"EAAB cBcd|eaag (3(efe) dB|"Am"c2Ac "G"BAGA|"Em"Bd~d2 dBAG|\
"Am"AGAB cBcd|
eaag (3(efe) dB|"Am"c2Ac "G"dBGB|"Am"A2AG A2:|\
|:(3(Bcd)|\
"Am"eaag aged|ea~a2 aged|
"G"dgga ged2|(3(e^fg) fa gedB|\
"Am"AGAB "G"cBcd|"Em"eaag (3(efe) dB|"Am"c2Ac "G"dBGB|"Am"A2AG A2:|
